svg/u1f4bc.svg

<svg viewBox="0 0 128 128" xmlns="http://www.w3.org/2000/svg">
  <g>
    <g>
      <rect height="8.04" fill="#7A442C" width="3.79" x="46.34" y="27.25"/>
      <rect height="8.04" fill="#7A442C" width="3.79" x="81.67" y="27.25"/>
      <path d="M117.38,124H10.57c-3.8,0-4.61-4.61-4.61-4.61c-4.42-31.69,0-78.55,0-78.55 c0-3.87,3.14-7.01,7.01-7.01h101.99c3.87,0,7.01,3.14,7.01,7.01c0,0,4.52,54.1,0,78.55C121.99,119.39,120.59,124,117.38,124z" fill="#7A442C"/>
      <path d="M117.38,124H10.57c-3.8,0-4.61-4.61-4.61-4.61c-4.42-31.69,0-78.55,0-78.55 c0-3.87,3.14-7.01,7.01-7.01h101.99c3.87,0,7.01,3.14,7.01,7.01c0,0,4.52,54.1,0,78.55C121.99,119.39,120.59,124,117.38,124z" fill="#7A442C"/>
      <path d="M121.02,46.99c-0.51-3.68,0.39-8.16-2.73-10.85v0c-1.21-1.08-2.8-1.73-4.54-1.73H14.21 c-6.98,0.18-7.07,7.06-7.32,12.58h0.32c0.07,21.6,3.2,34.4,56.89,34.4c56.77,0,56.9-11.37,56.9-34.4H121.02z" fill="#7A442C"/>
      <path d="M12.98,33.83c-8.25,0.58-5.47,8.38-5.75,12.09c0,0,1.71-4.76,5.49-4.76s99.28,0,103.09,0 s5.12,4.76,5.12,4.76c-0.26-3.69,2.63-11.25-5.96-12.09H12.98z" fill="#A65F3E"/>
      <g>
        <path d="M121.92,39.89c-0.02-0.18-0.05-0.35-0.09-0.53c-0.01-0.07-0.04-0.14-0.05-0.21 c-0.04-0.17-0.09-0.34-0.14-0.5c-0.02-0.06-0.04-0.12-0.06-0.18c-0.06-0.17-0.13-0.34-0.2-0.51c-0.02-0.05-0.04-0.09-0.07-0.13 c-0.08-0.18-0.17-0.35-0.27-0.52c-0.02-0.03-0.04-0.06-0.06-0.09c-0.11-0.18-0.22-0.35-0.35-0.52c-0.01-0.02-0.03-0.04-0.04-0.05 c-0.14-0.18-0.28-0.35-0.43-0.52c-0.01-0.01-0.01-0.01-0.02-0.02c-0.16-0.17-0.33-0.34-0.51-0.5c0,0,0,0,0,0 c0.44,2.27,0.72,4.34,0.72,5.64v4.62l0,0.7c0,0.06,0,0.11,0,0.16h2.06c0-0.08,0-0.16,0-0.24c-0.01-0.15-0.02-0.29-0.03-0.44 c-0.02-0.26-0.04-0.53-0.06-0.78c-0.01-0.14-0.02-0.26-0.03-0.4c-0.02-0.24-0.03-0.48-0.05-0.7c-0.01-0.15-0.02-0.29-0.03-0.43 c-0.01-0.2-0.03-0.4-0.04-0.58c-0.01-0.09-0.01-0.16-0.02-0.24c-0.01-0.19-0.03-0.39-0.04-0.56c-0.01-0.16-0.02-0.29-0.03-0.43 c-0.01-0.07-0.01-0.15-0.02-0.22c-0.02-0.29-0.04-0.49-0.05-0.63c-0.01-0.14-0.02-0.24-0.02-0.24c0-0.25-0.01-0.5-0.04-0.75 C121.94,40.03,121.93,39.96,121.92,39.89z" fill="#A06841"/>
        <path d="M5.91,41.42c-0.01,0.11-0.02,0.23-0.03,0.37c-0.01,0.08-0.02,0.18-0.02,0.28 c-0.01,0.13-0.02,0.27-0.04,0.42c0,0.04-0.01,0.08-0.01,0.12v3.26c0,0.29,0,0.57,0,0.86h2.06c0-0.29,0-0.57,0-0.86v-4.62 c0-1.34,0.31-3.54,0.78-5.91c-0.61,0.48-1.13,1.05-1.55,1.7c-0.02,0.03-0.03,0.05-0.05,0.08c-0.11,0.18-0.22,0.36-0.32,0.55 c-0.03,0.06-0.06,0.12-0.08,0.17c-0.08,0.16-0.15,0.33-0.21,0.5c-0.03,0.07-0.06,0.15-0.08,0.22c-0.06,0.16-0.1,0.33-0.15,0.49 c-0.02,0.08-0.05,0.16-0.06,0.25c-0.04,0.17-0.07,0.35-0.09,0.53c-0.01,0.08-0.03,0.16-0.04,0.23c-0.03,0.26-0.05,0.51-0.05,0.78 c0,0-0.01,0.15-0.04,0.43C5.92,41.31,5.92,41.37,5.91,41.42z" fill="#A06841"/>
      </g>
      <path d="M121.21,52.31c-0.01,10.55-1.53,15.76-7.78,20.81c-7.15,5.78-22.49,8.36-49.72,8.36 c-25.64,0-41.13-2.89-48.75-9.1C8.47,67.1,7.09,61.74,7,52.31H5.82c0.2,21.4,4.28,34.04,58.29,34.04 c57.17,0,58.28-11.25,58.3-34.04H121.21z" fill="#3E2723"/>
      <path d="M122.3,46.48c-0.25-3.54-0.42-5.64-0.42-5.64c0-2.09-0.92-3.95-2.36-5.24 c0.44,2.27,0.72,4.34,0.72,5.64v4.62l0,0.7c0,11.45,0,19.73-6.52,25c-7.15,5.78-22.49,8.36-49.72,8.36 c-25.64,0-41.13-2.89-48.75-9.1c-6.94-5.65-7.49-14.27-7.49-24.95v-4.62c0-1.34,0.31-3.54,0.78-5.91 c-1.63,1.28-2.68,3.27-2.68,5.51c0,0-0.06,0.62-0.15,1.76v3.26c0,22.65,2.57,36.11,58.3,36.11 C122.37,81.98,122.31,70.25,122.3,46.48z" fill="#A06841"/>
      <path d="M4.77,107.9c0.25,2.69,0.85,8.96,1.2,11.49c0,0,0.8,4.61,4.61,4.61h106.81 c3.21,0,4.61-4.61,4.61-4.61c0.44-2.37,1.05-8.22,1.37-11.35c0,0-1.75,2.52-10.43,4.48c-8.67,1.95-25.89,0.53-43.87,0.51 c-23.92-0.03-49.04,0.74-55.76-0.96C7.62,110.64,4.77,107.9,4.77,107.9z" fill="#603C24"/>
      <path d="M66.24,25.88c4.07,0.03,7.93,0.73,11,1.75c1.08,0.36,5.54,3.15,7.12,2.82 c0.84-0.2,2.66-0.9,2.23-3.2c-0.48-2.58-4.23-2.85-7.11-3.91c-4.07-1.49-8.76-2.03-13.24-2.03c-4.31,0-8.78,0.5-12.73,1.84 c-2.94,1-8.53,2.43-7.95,5.13c0.55,2.59,3.53,2.35,4.26,1.99c2.12-1.04,3.81-1.92,6.18-2.78C59.05,26.38,62.78,25.86,66.24,25.88z " fill="#7A442C"/>
      <path d="M66.12,22.38c9.12,0,12.97,2.76,15.07,4.23c5.12,3.58,5.47,1.54,5.4,0.64 c-0.27-3.53-3.87-6.16-6.82-7.59c-4.16-2.02-8.97-2.74-13.56-2.74c-4.41,0-8.98,0.67-13.03,2.5c-3.01,1.35-8.33,4.74-7.73,8.43 c0.48,2.9,4.29,0.08,5.03-0.41C52.66,26.04,56.64,22.38,66.12,22.38z" fill="#A65F3E"/>
      <path d="M46.65,27.25c-0.8-1.48,0.97-3.36,1.74-4c1.54-1.27,3.28-2.36,5.13-3.11 c0.95-0.38,3.72-0.96,3.86,0.53c0.14,1.51-3.67,3.01-4.63,3.48C49.33,25.82,47.41,28.67,46.65,27.25z" opacity="0.68" fill="#E6A467"/>
    </g>
    <path d="M70.06,95.07H57.94c-0.78,0-1.42-0.63-1.42-1.42v-7.78c0-0.78,0.63-1.42,1.42-1.42h12.11 c0.78,0,1.42,0.63,1.42,1.42v7.78C71.47,94.44,70.84,95.07,70.06,95.07z" fill="#3E2723"/>
    <g>
      <path d="M70.96,82.01H57.04c-0.59,0-1.07-0.48-1.07-1.07v-4.21c0-0.59,0.48-1.07,1.07-1.07h13.93 c0.59,0,1.07,0.48,1.07,1.07v4.21C72.03,81.53,71.55,82.01,70.96,82.01z" fill="#E6A467"/>
      <path d="M70.07,93.05H57.93c-0.56,0-1.02-0.46-1.02-1.02v-6.77c0-0.56,0.46-1.02,1.02-1.02h12.15 c0.56,0,1.02,0.46,1.02,1.02v6.77C71.09,92.59,70.64,93.05,70.07,93.05z" fill="#E6A467"/>
      <path d="M58.77,78.83c0,2.3-0.35,2.55-1.11,2.55s-0.88-0.74-0.88-2.57s0.13-2.46,0.94-2.46 S58.77,76.53,58.77,78.83z" fill="#FFF59D"/>
      <path d="M60.05,88.46c0,2.2,0.04,3.5-1.02,3.5c-1.07,0-1.17-1.24-1.17-3.56c0-1.67,0-3.04,1.11-3.04 C60.07,85.35,60.05,86.25,60.05,88.46z" fill="#FFF59D"/>
    </g>
  </g>
</svg>

<svg viewBox="0 0 128 128" xmlns="http://www.w3.org/2000/svg">
  <defs/>
  <path d="M46.34,27.25 L50.13,27.25 L50.13,35.29 L46.34,35.29 L46.34,27.25 Z" fill="#7A442C"/>
  <path d="M81.67,27.25 L85.46,27.25 L85.46,35.29 L81.67,35.29 L81.67,27.25 Z" fill="#7A442C"/>
  <path d="M117.38,124 L10.57,124 C6.77,124 5.96,119.39 5.96,119.39 C1.54,87.7 5.96,40.84 5.96,40.84 C5.96,36.97 9.1,33.83 12.97,33.83 L114.96,33.83 C118.83,33.83 121.97,36.97 121.97,40.84 C121.97,40.84 126.49,94.94 121.97,119.39 C121.99,119.39 120.59,124 117.38,124 Z" fill="#7A442C"/>
  <path d="M117.38,124 L10.57,124 C6.77,124 5.96,119.39 5.96,119.39 C1.54,87.7 5.96,40.84 5.96,40.84 C5.96,36.97 9.1,33.83 12.97,33.83 L114.96,33.83 C118.83,33.83 121.97,36.97 121.97,40.84 C121.97,40.84 126.49,94.94 121.97,119.39 C121.99,119.39 120.59,124 117.38,124 Z" fill="#7A442C"/>
  <path d="M121.02,46.99 C120.51,43.31 121.41,38.83 118.29,36.14 L118.29,36.14 C117.08,35.06 115.49,34.41 113.75,34.41 L14.21,34.41 C7.23,34.59 7.14,41.47 6.89,46.99 L7.21,46.99 C7.28,68.59 10.41,81.39 64.1,81.39 C120.87,81.39 121,70.02 121,46.99 L121.02,46.99 Z" fill="#7A442C"/>
  <path d="M12.98,33.83 C4.73,34.41 7.51,42.21 7.23,45.92 C7.23,45.92 8.94,41.16 12.72,41.16 C16.5,41.16 112,41.16 115.81,41.16 C119.62,41.16 120.93,45.92 120.93,45.92 C120.67,42.23 123.56,34.67 114.97,33.83 L12.98,33.83 Z" fill="#A65F3E"/>
  <path d="M121.92,39.89 C121.9,39.71 121.87,39.54 121.83,39.36 C121.82,39.29 121.79,39.22 121.78,39.15 C121.74,38.98 121.69,38.81 121.64,38.65 C121.62,38.59 121.6,38.53 121.58,38.47 C121.52,38.3 121.45,38.13 121.38,37.96 C121.36,37.91 121.34,37.87 121.31,37.83 C121.23,37.65 121.14,37.48 121.04,37.31 C121.02,37.28 121,37.25 120.98,37.22 C120.87,37.04 120.76,36.87 120.63,36.7 C120.62,36.68 120.6,36.66 120.59,36.65 C120.45,36.47 120.31,36.3 120.16,36.13 C120.15,36.12 120.15,36.12 120.14,36.11 C119.98,35.94 119.81,35.77 119.63,35.61 C119.63,35.61 119.63,35.61 119.63,35.61 C120.07,37.88 120.35,39.95 120.35,41.25 L120.35,45.87 L120.35,46.57 C120.35,46.63 120.35,46.68 120.35,46.73 L122.41,46.73 C122.41,46.65 122.41,46.57 122.41,46.49 C122.4,46.34 122.39,46.2 122.38,46.05 C122.36,45.79 122.34,45.52 122.32,45.27 C122.31,45.13 122.3,45.01 122.29,44.87 C122.27,44.63 122.26,44.39 122.24,44.17 C122.23,44.02 122.22,43.88 122.21,43.74 C122.2,43.54 122.18,43.34 122.17,43.16 C122.16,43.07 122.16,43 122.15,42.92 C122.14,42.73 122.12,42.53 122.11,42.36 C122.1,42.2 122.09,42.07 122.08,41.93 C122.07,41.86 122.07,41.78 122.06,41.71 C122.04,41.42 122.02,41.22 122.01,41.08 C122,40.94 121.99,40.84 121.99,40.84 C121.99,40.59 121.98,40.34 121.95,40.09 C121.94,40.03 121.93,39.96 121.92,39.89 Z" fill="#A06841"/>
  <path d="M5.91,41.42 C5.9,41.53 5.89,41.65 5.88,41.79 C5.87,41.87 5.86,41.97 5.86,42.07 C5.85,42.2 5.84,42.34 5.82,42.49 C5.82,42.53 5.81,42.57 5.81,42.61 L5.81,45.87 C5.81,46.16 5.81,46.44 5.81,46.73 L7.87,46.73 C7.87,46.44 7.87,46.16 7.87,45.87 L7.87,41.25 C7.87,39.91 8.18,37.71 8.65,35.34 C8.04,35.82 7.52,36.39 7.1,37.04 C7.08,37.07 7.07,37.09 7.05,37.12 C6.94,37.3 6.83,37.48 6.73,37.67 C6.7,37.73 6.67,37.79 6.65,37.84 C6.57,38 6.5,38.17 6.44,38.34 C6.41,38.41 6.38,38.49 6.36,38.56 C6.3,38.72 6.26,38.89 6.21,39.05 C6.19,39.13 6.16,39.21 6.15,39.3 C6.11,39.47 6.08,39.65 6.06,39.83 C6.05,39.91 6.03,39.99 6.02,40.06 C5.99,40.32 5.97,40.57 5.97,40.84 C5.97,40.84 5.96,40.99 5.93,41.27 C5.92,41.31 5.92,41.37 5.91,41.42 Z" fill="#A06841"/>
  <path d="M121.21,52.31 C121.2,62.86 119.68,68.07 113.43,73.12 C106.28,78.9 90.94,81.48 63.71,81.48 C38.07,81.48 22.58,78.59 14.96,72.38 C8.47,67.1 7.09,61.74 7,52.31 L5.82,52.31 C6.02,73.71 10.1,86.35 64.11,86.35 C121.28,86.35 122.39,75.1 122.41,52.31 L121.21,52.31 Z" fill="#3E2723"/>
  <path d="M122.3,46.48 C122.05,42.94 121.88,40.84 121.88,40.84 C121.88,38.75 120.96,36.89 119.52,35.6 C119.96,37.87 120.24,39.94 120.24,41.24 L120.24,45.86 L120.24,46.56 C120.24,58.01 120.24,66.29 113.72,71.56 C106.57,77.34 91.23,79.92 64,79.92 C38.36,79.92 22.87,77.03 15.25,70.82 C8.31,65.17 7.76,56.55 7.76,45.87 L7.76,41.25 C7.76,39.91 8.07,37.71 8.54,35.34 C6.91,36.62 5.86,38.61 5.86,40.85 C5.86,40.85 5.8,41.47 5.71,42.61 L5.71,45.87 C5.71,68.52 8.28,81.98 64.01,81.98 C122.37,81.98 122.31,70.25 122.3,46.48 Z" fill="#A06841"/>
  <path d="M4.77,107.9 C5.02,110.59 5.62,116.86 5.97,119.39 C5.97,119.39 6.77,124 10.58,124 L117.39,124 C120.6,124 122,119.39 122,119.39 C122.44,117.02 123.05,111.17 123.37,108.04 C123.37,108.04 121.62,110.56 112.94,112.52 C104.27,114.47 87.05,113.05 69.07,113.03 C45.15,113 20.03,113.77 13.31,112.07 C7.62,110.64 4.77,107.9 4.77,107.9 Z" fill="#603C24"/>
  <path d="M66.24,25.88 C70.31,25.91 74.17,26.61 77.24,27.63 C78.32,27.99 82.78,30.78 84.36,30.45 C85.2,30.25 87.02,29.55 86.59,27.25 C86.11,24.67 82.36,24.4 79.48,23.34 C75.41,21.85 70.72,21.31 66.24,21.31 C61.93,21.31 57.46,21.81 53.51,23.15 C50.57,24.15 44.98,25.58 45.56,28.28 C46.11,30.87 49.09,30.63 49.82,30.27 C51.94,29.23 53.63,28.35 56,27.49 C59.05,26.38 62.78,25.86 66.24,25.88 Z" fill="#7A442C"/>
  <path d="M66.12,22.38 C75.24,22.38 79.09,25.14 81.19,26.61 C86.31,30.19 86.66,28.15 86.59,27.25 C86.32,23.72 82.72,21.09 79.77,19.66 C75.61,17.64 70.8,16.92 66.21,16.92 C61.8,16.92 57.23,17.59 53.18,19.42 C50.17,20.77 44.85,24.16 45.45,27.85 C45.93,30.75 49.74,27.93 50.48,27.44 C52.66,26.04 56.64,22.38 66.12,22.38 Z" fill="#A65F3E"/>
  <path d="M46.65,27.25 C45.85,25.77 47.62,23.89 48.39,23.25 C49.93,21.98 51.67,20.89 53.52,20.14 C54.47,19.76 57.24,19.18 57.38,20.67 C57.52,22.18 53.71,23.68 52.75,24.15 C49.33,25.82 47.41,28.67 46.65,27.25 Z" fill="#E6A467" opacity="0.68"/>
  <path d="M70.06,95.07 L57.94,95.07 C57.16,95.07 56.52,94.44 56.52,93.65 L56.52,85.87 C56.52,85.09 57.15,84.45 57.94,84.45 L70.05,84.45 C70.83,84.45 71.47,85.08 71.47,85.87 L71.47,93.65 C71.47,94.44 70.84,95.07 70.06,95.07 Z" fill="#3E2723"/>
  <path d="M70.96,82.01 L57.04,82.01 C56.45,82.01 55.97,81.53 55.97,80.94 L55.97,76.73 C55.97,76.14 56.45,75.66 57.04,75.66 L70.97,75.66 C71.56,75.66 72.04,76.14 72.04,76.73 L72.04,80.94 C72.03,81.53 71.55,82.01 70.96,82.01 Z" fill="#E6A467"/>
  <path d="M70.07,93.05 L57.93,93.05 C57.37,93.05 56.91,92.59 56.91,92.03 L56.91,85.26 C56.91,84.7 57.37,84.24 57.93,84.24 L70.08,84.24 C70.64,84.24 71.1,84.7 71.1,85.26 L71.1,92.03 C71.09,92.59 70.64,93.05 70.07,93.05 Z" fill="#E6A467"/>
  <path d="M58.77,78.83 C58.77,81.13 58.42,81.38 57.66,81.38 C56.9,81.38 56.78,80.64 56.78,78.81 C56.78,76.98 56.91,76.35 57.72,76.35 C58.53,76.35 58.77,76.53 58.77,78.83 Z" fill="#FFF59D"/>
  <path d="M60.05,88.46 C60.05,90.66 60.09,91.96 59.03,91.96 C57.96,91.96 57.86,90.72 57.86,88.4 C57.86,86.73 57.86,85.36 58.97,85.36 C60.07,85.35 60.05,86.25 60.05,88.46 Z" fill="#FFF59D"/>
</svg>
